X: 17173
T: Hendon Road
R: reel
M: 4/4
K: Dminor
dfed cAGE|FDEC DFED|B,CDE FGAd|cAGc AddA|
dfed cAGE|FDEC DFED|B,CDE FGAc|Aaag fddA:|
defg afgf|eccg acge|defg afge|fedc AddA|
defg a2gf|eccg acgc|afge fedc|Aaag fddA:|

